X:1
T:Gao Shan Qing (High Mountain Trail)
C:Trad Taiwanese / Hokkien folk (pre-1929)
S:Public domain — traditional, collected in pre-1929 sources
M:4/4
L:1/8
Q:1/4=80
K:D
H:D pentatonic, ranging across both octaves of the D xiao (D4-A5).
H:Uplifting, wide-ranging tune — a showcase of the xiao's full voice.
D4 E2 G2 | A4 B4 | d4 e2 d2 | B4 A4 |
G4 A2 B2 | d4 e4 | d2 B2 A2 G2 | D8 |
d4 e2 g2 | a4 b4 | a4 g2 e2 | d8 |
B4 A2 G2 | E4 D4 | G4 A2 B2 | D8 |]
